dist/svgs/devui-icons/op/collapse-info.svg

<svg xmlns="http://www.w3.org/2000/svg" viewBox="0 0 16 16"><path d="M4 4h2L3 7 0 4h2V0h2v4zm0 8v4H2v-4H0l3-3 3 3H4zM7 1h8v2H7V1zm0 8h8v2H7V9zm0-4h8v2H7V5zm0 8h8v2H7v-2z"/></svg>

<?xml version="1.0" encoding="UTF-8"?>
<svg width="16px" height="16px" viewBox="0 0 16 16" version="1.1" xmlns="http://www.w3.org/2000/svg" xmlns:xlink="http://www.w3.org/1999/xlink">
    <title>操作/收起所有信息</title>
    <desc>Created with Sketch.</desc>
    <g id="操作/收起所有信息" stroke="none" stroke-width="1" fill="none" fill-rule="evenodd">
        <g id="收起所有信息" fill-rule="nonzero">
            <path d="M4,4 L6,4 L3,7 L-1.77635684e-15,4 L2,4 L2,0 L4,0 L4,4 Z M4,12 L4,16 L2,16 L2,12 L-1.77635684e-15,12 L3,9 L6,12 L4,12 Z M7,1 L15,1 L15,3 L7,3 L7,1 Z M7,9 L15,9 L15,11 L7,11 L7,9 Z M7,5 L15,5 L15,7 L7,7 L7,5 Z M7,13 L15,13 L15,15 L7,15 L7,13 Z" id="形状" fill="#293040"></path>
        </g>
    </g>
</svg>
